X: 133
T: Over the Moor to Maggie
R:reel
M:C|
K:G
"G"~G3A BGBd|"C"efge "G"dBAG|"Am"EAAG ABAG|EAAG A2 BA|
"G"~G3A BGBd|"C"efge "G"dBAG|"C"EG~G2 "G"BGAG|1 "C"EGGF "G"G2DE:|2 "C"EGGF "G"G2ga||
|: "G"~b3g "D"~a3f|"C"gage "G"d2Bd|"Am"eaag abag|eaag a2ga|
"G"bg~g2 "D"af~f2|"C"gage "G"d2Bd|"C"eg~g2 "G"bgag|1 "C"eggf "G"g2ga:|2 "C"eggf "G"g2Bd||
|: "C"~e3c "G"d2dB|"Am"c2cA "G"B2AG|"Am"EAAG ABAG|EAAG ABcd|
"C"~e3c "G"dedB|"Am"cA~A2 "G"B2AG|"C"EG~G2 "G"BGAG|1 "C"EGGF "G"G2Bd:|2 "C"EGGF "G"G2DE||


